X: 38028
T: Spicy, The
R: jig
M: 6/8
K: Amajor
ed|:cee ecA|dff afd|cee ecA|dBB Bed|
cee ecA|dff afd|cee G2 B|AAA A2 d:|
caa caa|daa daa|caa caa|Bcd cBd|
caa caa|daa daa|cee G2 B|AAA A3:|

